!!!OTL: Falscher Sinn (81a), S. 221
!!!id: T0235
**kern
*clefG2
*k[]
*G:
{4g
=1
4e
8e
8e
4e
8g
8e
=2
4e
8d
8d
4d}
=3
{4d
=4
4g
4g
8b
8a
8g
8a
=5
2b}
4r
=6
{8g
8a
=7
4b
4dd
8dd
8cc
8b
8cc
=8
4dd
4ee
4dd}
=9
{8cc
8cc
=10
4b
4b
4a
4a
=11
2g}
4r
==
*-
!!!minrhy: 8
!!!meters: 4/4 ]  ZZ[4
!!!cut: Falscher Sinn (81a), S. 221
!!!reg: Luxemburg
!!!trd: Singendes Volk, Esch-Alzette 1937 posth.
!!!rhy1: X_  X_XXX_XX  X_XXX_
!!!rhy2: X_  X_X_XXXX  X__0_
!!!key: T0235  08  G 4/4 ]  ZZ[4
!!!mod: SECHSTONSKALA DUR ?]  AMBITUS[9
!!!kad: -5351
!!!akz: -6-6-6-5_133_3555_321_
!!!fot: 'a__b__bs'c__
!!!for: 'a__b__bw_c__
!!!fok: '\__~a_~a_\__
!! PHRAS[AUFTAKTIG]
!!!fkt: Liebeslieder
!!!bem: Reuland, hhh Gabriel Petry, 1906
!! THILL, Mathias:
!! PR[20] 2K[8] 2G[10] 3K[8] 3G[5] 4A[5] 4Ü[0] 5A[0] 6K[0] 6G[0]
!! 7K[0] 7G[0] 8A[0] MEHR[0] SI[35] ABS[40] SR[18] SP[18]
!! ST[9] 2k[10] 2g[25] 3k[8] 3g[0] 4d[3] 4ü[0] 5d[0] 6k[0] 6g[0]
!! 7k[0] 7g[0] 8d[0] mehr[0] si[45] dm[-10] sr[35] sp[10]
!! 1F[55] 2F[36] 3F[9] 4F[0] LF[0] 2P[0] 3P[0] 4P[0] TRI[0] DF[3] AB[44]
!! TF[0] U3K[0] U3[0] U4[0] U4Ü[0] U5[0] U6K[0] U6[0] U7K[0] U7[0]
!! N1[5] N2K[0] N2[10] N3K[0] N3[24] N4[12] N4Ü[0] N5[24] N6K[0] N6[10]
!!!n7k: 0] N7[2] O1[12] O2K[0] O2[0] O3K[0] O3[0] HÖ[0
